dist/svg/check-in-duo-tone-4.svg

<svg xmlns="http://www.w3.org/2000/svg" viewBox="0 0 24 24"><path d="M5.656 2.282a2.75 2.75 0 0 0-2.112 1.495c-.309.63-.284-.08-.284 8.223 0 7.048.004 7.433.073 7.68a2.82 2.82 0 0 0 1.987 1.987c.246.069.598.073 6.68.073 6.101 0 6.433-.004 6.68-.073a2.83 2.83 0 0 0 1.987-1.987c.07-.248.073-.61.073-7.68s-.003-7.432-.073-7.68a2.8 2.8 0 0 0-1.465-1.782c-.598-.295-.071-.274-7.042-.282-3.443-.004-6.37.008-6.504.026M18.52 3.874c.245.129.466.346.593.586l.107.2v14.68l-.108.204c-.146.278-.467.559-.723.636-.178.052-.989.06-6.389.06s-6.211-.008-6.389-.06c-.256-.077-.577-.358-.723-.636l-.108-.204-.01-6.29-.011-6.29 1.191-.001c1.071-.001 1.206-.008 1.35-.075a.73.73 0 0 0 .398-.413c.154-.368-.018-.78-.398-.955-.144-.067-.279-.074-1.355-.075L4.749 5.24l.019-.29a1.27 1.27 0 0 1 .912-1.153c.055-.017 2.926-.028 6.38-.024l6.28.007zM16.7 5.316a.745.745 0 0 0 .029 1.382.65.65 0 0 0 .542 0 .748.748 0 0 0 0-1.396.67.67 0 0 0-.571.014m-5.48 2.989c-1.774.32-3.193 1.543-3.743 3.225a4.73 4.73 0 0 0 1.164 4.829 4.734 4.734 0 0 0 6.718 0 4.734 4.734 0 0 0 0-6.718c-1.085-1.084-2.68-1.599-4.139-1.336m1.653 1.573a3.29 3.29 0 0 1 2.256 2.27c.073.255.09.411.09.852 0 .622-.076.961-.327 1.452l-.147.288-.032-.205c-.081-.531-.353-1.046-.778-1.47-.511-.512-.963-.716-1.771-.8-.317-.033-.572-.083-.685-.133-.226-.101-.487-.361-.605-.604a1.44 1.44 0 0 1-.073-.87c.097-.348.428-.701.785-.839.216-.083.901-.051 1.287.059m-3.459 2.057c.141.388.33.68.65 1 .511.513 1.063.756 1.85.818.498.038.71.12.961.372.259.259.345.476.345.875 0 .408-.087.621-.369.899-.279.274-.532.355-1.031.328-1.395-.076-2.556-1.01-2.949-2.375-.073-.255-.09-.411-.09-.852 0-.622.076-.961.327-1.452l.147-.288.032.205c.017.113.074.325.127.47" fill-rule="evenodd"/></svg>

<svg fill="none" xmlns="http://www.w3.org/2000/svg" viewBox="0 0 24 24"><path d="M5.656 2.282 C 4.737 2.403,3.941 2.967,3.544 3.777 C 3.235 4.407,3.260 3.697,3.260 12.000 C 3.260 19.048,3.264 19.433,3.333 19.680 C 3.606 20.659,4.341 21.394,5.320 21.667 C 5.566 21.736,5.918 21.740,12.000 21.740 C 18.101 21.740,18.433 21.736,18.680 21.667 C 19.661 21.390,20.390 20.661,20.667 19.680 C 20.737 19.432,20.740 19.070,20.740 12.000 C 20.740 4.930,20.737 4.568,20.667 4.320 C 20.443 3.524,19.927 2.896,19.202 2.538 C 18.604 2.243,19.131 2.264,12.160 2.256 C 8.717 2.252,5.790 2.264,5.656 2.282 M18.520 3.874 C 18.765 4.003,18.986 4.220,19.113 4.460 L 19.220 4.660 19.220 12.000 L 19.220 19.340 19.112 19.544 C 18.966 19.822,18.645 20.103,18.389 20.180 C 18.211 20.232,17.400 20.240,12.000 20.240 C 6.600 20.240,5.789 20.232,5.611 20.180 C 5.355 20.103,5.034 19.822,4.888 19.544 L 4.780 19.340 4.770 13.050 L 4.759 6.760 5.950 6.759 C 7.021 6.758,7.156 6.751,7.300 6.684 C 7.494 6.595,7.616 6.468,7.698 6.271 C 7.852 5.903,7.680 5.491,7.300 5.316 C 7.156 5.249,7.021 5.242,5.945 5.241 L 4.749 5.240 4.768 4.950 C 4.804 4.401,5.154 3.959,5.680 3.797 C 5.735 3.780,8.606 3.769,12.060 3.773 L 18.340 3.780 18.520 3.874 M16.700 5.316 C 16.084 5.600,16.101 6.436,16.729 6.698 C 16.917 6.777,17.083 6.777,17.271 6.698 C 17.911 6.431,17.911 5.569,17.271 5.302 C 17.076 5.221,16.897 5.225,16.700 5.316 M11.220 8.305 C 9.446 8.625,8.027 9.848,7.477 11.530 C 6.921 13.231,7.368 15.086,8.641 16.359 C 10.506 18.223,13.494 18.223,15.359 16.359 C 17.223 14.494,17.223 11.506,15.359 9.641 C 14.274 8.557,12.679 8.042,11.220 8.305 M12.873 9.878 C 13.964 10.190,14.810 11.041,15.129 12.148 C 15.202 12.403,15.219 12.559,15.219 13.000 C 15.219 13.622,15.143 13.961,14.892 14.452 L 14.745 14.740 14.713 14.535 C 14.632 14.004,14.360 13.489,13.935 13.065 C 13.424 12.553,12.972 12.349,12.164 12.265 C 11.847 12.232,11.592 12.182,11.479 12.132 C 11.253 12.031,10.992 11.771,10.874 11.528 C 10.764 11.300,10.731 10.908,10.801 10.658 C 10.898 10.310,11.229 9.957,11.586 9.819 C 11.802 9.736,12.487 9.768,12.873 9.878 M9.414 11.935 C 9.555 12.323,9.744 12.615,10.064 12.935 C 10.575 13.448,11.127 13.691,11.914 13.753 C 12.412 13.791,12.624 13.873,12.875 14.125 C 13.134 14.384,13.220 14.601,13.220 15.000 C 13.220 15.408,13.133 15.621,12.851 15.899 C 12.572 16.173,12.319 16.254,11.820 16.227 C 10.425 16.151,9.264 15.217,8.871 13.852 C 8.798 13.597,8.781 13.441,8.781 13.000 C 8.781 12.378,8.857 12.039,9.108 11.548 L 9.255 11.260 9.287 11.465 C 9.304 11.578,9.361 11.790,9.414 11.935 " stroke="none" fill-rule="evenodd" fill="currentColor"/></svg>
